X:240
%%etbk:tnset id:75,pos:2,rep:3x,ant:
%%etbk:wsite http://www.thesession.org/tunes/display/273
%%etbk:skill ?
%%etbk:pldat 2013-10-05T15:24,2013-05-15T15:30
T: Castle Jig
T: Sean Ryan's
Z: Piano Box Version by Martin Fleischmann
H: Created 2013-02-19 /  Last Modified 2013-02-19
M: 6/8
L: 1/8
R: jig
K: Ador
|: "am"!5!cBA !4!BAG | !3!AG!1!E !2!DE!5!G |  !1!A,!2!A,!1!A, !5!E!4!D!2!B, | "em"!1!DE!4!G !5!A!4!G!1!E |
"am"!5!cBA !4!BAG | !3!AG!1!E !2!DE!5!G |  !1!A,!2!A,!1!A, !5!E!4!D!2!B,  | "em"{D}B,!1!A,!2!G, "am"!1!A,3:|
|: "am"!3!cBA !4!a!1!A!4!a | !5!bag !2!e!1!d!2!B | "G" !1!G!2!B!3!d !5!g2g | !1!G!2!B!4!d GBd |
"am"!3!ccc !4!dcd | !2!ede !3!gab | !4!a!3!g!2!e !1!d!2!B!1!G | "em"!1!G!2!B!1!G "am"!1!A3:|
